X: 32250
T: Pibroch Of Donald Dhu
R: jig
M: 6/8
K: Fmajor
c>AA d>ef|c>AA A2 F|c>AA d>ef|cA>F G2 F||
c>AA d>BB|c>AA A2 F|GGA B>cd|cAF G2 F||
f>cc f>dd|f>cc A2 F|GGA B>cd|cAF G2 F||

